usr/share/icons/biglinux-icons-material-dark/22/actions/office-chart-bar.svg

<svg xmlns="http://www.w3.org/2000/svg" viewBox="0 0 22 22">
<defs id="defs3051">
<style id="current-color-scheme" type="text/css">
.ColorScheme-Text{color:#dedede}
</style>
</defs>
<path d="M4 3v14H3v1h1v1h1v-1h14v-1h-3V8h-4v9h-2V3H6v14H5V3zm3 1h2v13H7zm6 5h2v8h-2z" class="ColorScheme-Text" style="fill:currentColor;fill-opacity:1;stroke:none"/>
</svg>

<svg xmlns="http://www.w3.org/2000/svg" viewBox="0 0 22 22">
  <defs id="defs3051">
    <style type="text/css" id="current-color-scheme">
      .ColorScheme-Text {
        color:#dedede;
      }
      </style>
  </defs>
 <path 
     style="fill:currentColor;fill-opacity:1;stroke:none" 
     d="M 4 3 L 4 9 L 4 10 L 4 15 L 4 16 L 4 17 L 3 17 L 3 18 L 4 18 L 4 19 L 5 19 L 5 18 L 19 18 L 19 17 L 16 17 L 16 8 L 15 8 L 12 8 L 12 17 L 10 17 L 10 7 L 10 4 L 10 3 L 6 3 L 6 17 L 5 17 L 5 16 L 5 15 L 5 12 L 5 11 L 5 10 L 5 9 L 5 6 L 5 5.9921875 L 5 5 L 5 3 L 4 3 z M 7 4 L 9 4 L 9 17 L 7 17 L 7 4 z M 13 9 L 15 9 L 15 17 L 13 17 L 13 9 z "
	 class="ColorScheme-Text"
     />
</svg>
